X: 21805
T: King, The
R: jig
M: 6/8
K: Gmajor
||~G3 AGA|Bcd efg|~G3 AGA|BGE EDD|
~G3 AGA|Bcd efg|edB AGA|AGF G3|
~G3 AGA|Bcd efg|~G3 AGA|Bcd EDD|
~G3 AGA|Bcd efg|edB AGA|AGF G3||
|:efg edB|d3 dB/c/d|~g3 ~a3|bge ~e2f|
~g3 ~a3|bge efg|edB AGA|1 AGF G3:|2 AGF G2 E||
|:DEG BGG|AGG BGG|efg edB|~A3 AGE|
DEG BGG|AGG BGG|efg edB|1 AGF G2 E:|2 AGF G3||
|:efg fBB|bag fBB|eBB fBB|~f2e fdB|
efg fBB|bag fBB|efg fed|1 e/f/gf dee:|2 e/f/ge dBA||

